frontend/src/assets/scalable/menu_dots.svg

<svg xmlns="http://www.w3.org/2000/svg" viewBox="0 0 24 24"><path d="M6,16a2,2,0,1,1-2,2,2,2,0,0,1,2-2" style="fill:#e0e0df"/><path d="M6,4A2,2,0,1,1,4,6,2,2,0,0,1,6,4" style="fill:#dc3545"/><path d="M6,10a2,2,0,1,1-2,2,2,2,0,0,1,2-2" style="fill:#b6b7b7"/><path d="M12,16a2,2,0,1,1-2,2,2,2,0,0,1,2-2" style="fill:#e0e0df"/><path d="M12,4a2,2,0,1,1-2,2,2,2,0,0,1,2-2" style="fill:#dc3545"/><path d="M12,10a2,2,0,1,1-2,2,2,2,0,0,1,2-2" style="fill:#b6b7b7"/><path d="M18,16a2,2,0,1,1-2,2,2,2,0,0,1,2-2" style="fill:#e0e0df"/><path d="M18,4a2,2,0,1,1-2,2,2,2,0,0,1,2-2" style="fill:#dc3545"/><path d="M18,10a2,2,0,1,1-2,2,2,2,0,0,1,2-2" style="fill:#b6b7b7"/></svg>

<?xml version="1.0" encoding="UTF-8" standalone="no"?>
<svg
   viewBox="0 0 24 24"
   version="1.1"
   id="svg20"
   sodipodi:docname="menu_dots.svg"
   inkscape:version="1.2.2 (b0a84865, 2022-12-01)"
   xmlns:inkscape="http://www.inkscape.org/namespaces/inkscape"
   xmlns:sodipodi="http://sodipodi.sourceforge.net/DTD/sodipodi-0.dtd"
   xmlns="http://www.w3.org/2000/svg"
   xmlns:svg="http://www.w3.org/2000/svg">
  <defs
     id="defs24" />
  <sodipodi:namedview
     id="namedview22"
     pagecolor="#505050"
     bordercolor="#eeeeee"
     borderopacity="1"
     inkscape:showpageshadow="0"
     inkscape:pageopacity="0"
     inkscape:pagecheckerboard="0"
     inkscape:deskcolor="#505050"
     showgrid="false"
     inkscape:zoom="9.8333333"
     inkscape:cx="9.8644068"
     inkscape:cy="12"
     inkscape:window-width="1440"
     inkscape:window-height="900"
     inkscape:window-x="0"
     inkscape:window-y="0"
     inkscape:window-maximized="0"
     inkscape:current-layer="svg20" />
  <g
     id="g262"
     transform="matrix(1.5,0,0,1.5,-6,-6)">
    <path
       d="M 6,16 A 2,2 0 1 1 4,18 2,2 0 0 1 6,16"
       style="fill:#e0e0df"
       id="path2" />
    <path
       d="M 6,4 A 2,2 0 1 1 4,6 2,2 0 0 1 6,4"
       style="fill:#dc3545"
       id="path4" />
    <path
       d="M 6,10 A 2,2 0 1 1 4,12 2,2 0 0 1 6,10"
       style="fill:#b6b7b7"
       id="path6" />
    <path
       d="m 12,16 a 2,2 0 1 1 -2,2 2,2 0 0 1 2,-2"
       style="fill:#e0e0df"
       id="path8" />
    <path
       d="M 12,4 A 2,2 0 1 1 10,6 2,2 0 0 1 12,4"
       style="fill:#dc3545"
       id="path10" />
    <path
       d="m 12,10 a 2,2 0 1 1 -2,2 2,2 0 0 1 2,-2"
       style="fill:#b6b7b7"
       id="path12" />
    <path
       d="m 18,16 a 2,2 0 1 1 -2,2 2,2 0 0 1 2,-2"
       style="fill:#e0e0df"
       id="path14" />
    <path
       d="M 18,4 A 2,2 0 1 1 16,6 2,2 0 0 1 18,4"
       style="fill:#dc3545"
       id="path16" />
    <path
       d="m 18,10 a 2,2 0 1 1 -2,2 2,2 0 0 1 2,-2"
       style="fill:#b6b7b7"
       id="path18" />
  </g>
</svg>
